X:BFS 14-04 53
T:
M:4/4
K:G
P:A
g2G2 G2Bc dedc B2AB |1,3 c2E2 E2AG FGFE D4 :|2,4 c2E2 AGFE D2G2 G4 :|
P:B
D2B2 BAGF E2c2 c4 |1,3 E2c2 cBcd e2d2 B2A2 :|2,4 defe dcBA A2G2 G4 :|
P:C
D2D2 D2GF E2E2 E2cA |1,3 F2F2 FDEF GFGA B2G2 :|2,4 F2F2 FDEF G4 G2 :|
P:D
GA| B2B2 B2GA B2B2 B2GA Bgfe dcB2 AGAB A4 B2B2 BGAB c2c2 c4 dgfe dcBA A2G2 G2 :|

%      BFS 14-04 54 = WFS 14-03 19 Astley's Ride, into BFS 14-04 55 = WFS 13-10 03 Buttered Peas

